X: 35
T: Zodiac
R: waltz
M: 3/8
L: 1/8
Z: 2010 John Chambers <jc:trillian.mit.edu>
B: Anonymous manuscript tune book (1800-1840) p.28
F: http://www.asaplive.com/archive/browse_by_collection.asp
N: The asaplive.com web site is complex, and links to its files don't usually work.
K: C
G | c>dc | Gge | dfd | BdG | c>dc | Gge | dfB | c2 :|
|: B/c/ | dBG | ecA | fdB | gec | dBG | ecA | fdB | c2 :|
|: g | c'ba | gee | fdd | ecA | c'ba | gee | fdB | c2 :|
|: e/f/ | gea | f2d | Bdf | e2c | gea | f2d | GBd | c2 H:|
